!!!OTL: Mahnung der Liebe.
!!!ARE: Europa, Mitteleuropa, Deutschland
!!!SCT: A0203
!!!TXL: @@GMH
!!!YEM: Copyright 1995, estate of Helmut Schaffrath.
**kern	**text
*M4/2	*
*met(c|)	*
*clefC3	*
*k[b-]	*
*C:hmix	*
=1	=1
!LO:TX:a:t=hypomixolyd.	!
{1c	Ich
2d	habs
2d	ge-
=2	=2
2c	-wagt,
2f	du
2d	ſchö-
2e	-ne
=3	=3
1f	magd,
2r}	.
{2f	in
=4	=4
1d	rech-
1e	-ter
=5	=5
1f	lieb
2g	vnd
*lig	*
1e	trew-
=6-	=6-
.	.
4d	.
4c	.
1d	.
*Xlig	*
=7	=7
1c	-en.
1r}	.
=8	=8
{1c	Ich
2d	bit,
2d	halt
=9	=9
2c	faſt,
2f	wie
2d	du
2e	mir
=10	=10
1f	haſt
2r}	.
{2f	ge-
=11	=11
1d	-red,
1e	ſol
=12	=12
1f	dich
2g	nicht
*lig	*
1e	rew-
=13-	=13-
.	.
4d	.
1d	.
*Xlig	*
=14	=14
1c	-en.
2r}	.
{2f	Jch
=15	=15
1d	wil
2e	al-
1f	-lein
=16-	=16-
.	.
1c	dein
*lig	*
1d	ei-
=17-	=17-
.	.
2c	.
*Xlig	*
1B-	-gen
=18	=18
1A	ſein,
2r}	.
{2F	drauff
=19	=19
1c	bis
1d	be-
=20	=20
1e	-dacht,
1f	vnd
=21	=21
*lig	*
2.g	wol
4f	.
*Xlig	*
1e	be-
=22	=22
1d	-tracht,
2r}	.
{2f	daß
=23	=23
1e	du
1d	muſt
=24	=24
1c	ſein
2r	.
*lig	*
2d	[daß
=25	=25
2d	.
*Xlig	*
2c	.
2B-	du
2B-	mußt
=26	=26
1A	ſein]
1r}	.
=27	=27
*lig	*
{4F	die
4G	.
4A	.
4B-	.
*Xlig	*
2c	ſtets
2c	hertʒ-
=28	=28
2d	-al-
2f	-ler-
2e	-lieb-
2.d}	.
=29	=29
.	.
{4c	.
2.c	.
8BL	.
8AJ	.
2B	-ſte
=30	=30
0cll}	mein!
==	==
!!!GTL: Liebeslieder
!!!AGN: Romanze, Ballade, Lied
!! Minnenbergs Christl. Reuterliedern 1582 No. 3.
!!!ONB: ESAC (Essen Associative Code) Database: ALTDEU
!!!AMT: simple quadruple
!!!AIN: vox
!!!EED: Helmut Schaffrath
!!!EEV: 1.0
!!!RDF**kern: l = terminal long
!!!AMD: Hypomixolydian
!!!URL-scan: https://rosdok.uni-rostock.de/mcrviewer/recordIdentifier/rosdok_ppn738218359/iview2/phys_0359.iview2?x=-495.6391625615763&y=520.5825572835747&scale=0.4629418472063854&rotation=0&layout=singlePageLayout&logicalDiv=log_0009
!!!ENC: Anna Maria Matuszewska
!!!EEV: 2024/07/03
*-	*-
